202404-ahaslides-april/assets/images/1a.svg

<svg width="100" height="100" viewBox="0 0 100 100" fill="none" xmlns="http://www.w3.org/2000/svg">
<g clip-path="url(#clip0_2007_754)">
<path fill-rule="evenodd" clip-rule="evenodd" d="M63.6082 70.0601L60.2525 71.9976C59.944 72.1753 59.5926 72.2646 59.2367 72.2558C58.8808 72.247 58.5342 72.1405 58.2348 71.9478C57.9355 71.7551 57.6949 71.4837 57.5396 71.1634C57.3842 70.8431 57.32 70.4862 57.354 70.1318L58.9641 53.5429C58.9938 53.236 59.0963 52.9407 59.2632 52.6814C59.43 52.4221 59.6563 52.2064 59.9233 52.0521C60.1903 51.8979 60.4902 51.8096 60.7982 51.7946C61.1062 51.7796 61.4133 51.8383 61.694 51.9658L76.8646 58.8672C77.189 59.0144 77.4666 59.2483 77.6667 59.543C77.8668 59.8377 77.9818 60.1819 77.999 60.5378C78.0163 60.8936 77.935 61.2473 77.7643 61.56C77.5936 61.8727 77.3399 62.1322 77.0312 62.3101L73.6755 64.2476L76.5817 69.2812C77.3404 70.6156 77.5404 72.1958 77.1383 73.677C76.7361 75.1583 75.7644 76.4204 74.4352 77.1878C73.1059 77.9553 71.5271 78.1659 70.0432 77.7735C68.5593 77.3812 67.2908 76.4179 66.5145 75.0938L63.6082 70.0601ZM51.7914 61.2212L55.1472 59.2837C55.5924 59.0268 55.9174 58.6035 56.0506 58.107C56.1837 57.6105 56.1142 57.0814 55.8573 56.6362C55.6004 56.1909 55.1771 55.8659 54.6805 55.7328C54.184 55.5996 53.6549 55.6691 53.2097 55.9261L49.8539 57.8636C49.4126 58.1223 49.0915 58.5451 48.9607 59.0398C48.8299 59.5344 48.9001 60.0607 49.1559 60.5038C49.4117 60.9469 49.8324 61.2708 50.3262 61.4048C50.8199 61.5389 51.3467 61.4741 51.7914 61.2212ZM68.5721 51.5337L71.9279 49.5962C72.3731 49.3393 72.6981 48.916 72.8313 48.4195C72.9644 47.923 72.8949 47.3939 72.638 46.9487C72.381 46.5034 71.9578 46.1784 71.4612 46.0453C70.9647 45.9121 70.4356 45.9816 69.9904 46.2386L66.6346 48.1761C66.1933 48.4348 65.8721 48.8576 65.7414 49.3523C65.6106 49.8469 65.6808 50.3732 65.9366 50.8163C66.1924 51.2594 66.6131 51.5833 67.1069 51.7173C67.6006 51.8514 68.1274 51.7866 68.5721 51.5337ZM58.6947 46.0487L56.7572 42.6929C56.4985 42.2516 56.0757 41.9305 55.581 41.7997C55.0864 41.6689 54.5601 41.7391 54.117 41.9949C53.6739 42.2507 53.35 42.6714 53.216 43.1652C53.0819 43.6589 53.1486 44.1857 53.4015 44.6304L55.339 47.9862C55.5978 48.4276 56.0206 48.7487 56.5152 48.8794C57.0099 49.0102 57.5361 48.94 57.9792 48.6842C58.4223 48.4284 58.7462 48.0077 58.8803 47.514C59.0143 47.0202 58.9476 46.4935 58.6947 46.0487ZM19.875 33.4375V21.8125C19.875 21.2986 20.0791 20.8058 20.4425 20.4425C20.8058 20.0791 21.2986 19.875 21.8125 19.875C22.3264 19.875 22.8192 20.0791 23.1825 20.4425C23.5459 20.8058 23.75 21.2986 23.75 21.8125V33.4375C23.75 33.9514 23.9541 34.4442 24.3175 34.8075C24.6808 35.1709 25.1736 35.375 25.6875 35.375C26.2014 35.375 26.6942 35.1709 27.0575 34.8075C27.4209 34.4442 27.625 33.9514 27.625 33.4375V21.8125C27.625 20.2709 27.0126 18.7925 25.9226 17.7024C24.8325 16.6124 23.3541 16 21.8125 16C20.2709 16 18.7925 16.6124 17.7024 17.7024C16.6124 18.7925 16 20.2709 16 21.8125V33.4375C16 33.9514 16.2041 34.4442 16.5675 34.8075C16.9308 35.1709 17.4236 35.375 17.9375 35.375C18.4514 35.375 18.9442 35.1709 19.3075 34.8075C19.6709 34.4442 19.875 33.9514 19.875 33.4375ZM19.875 54.75V41.1875C19.875 40.6736 19.6709 40.1808 19.3075 39.8175C18.9442 39.4541 18.4514 39.25 17.9375 39.25C17.4236 39.25 16.9308 39.4541 16.5675 39.8175C16.2041 40.1808 16 40.6736 16 41.1875V54.75C16 55.2639 16.2041 55.7567 16.5675 56.12C16.9308 56.4834 17.4236 56.6875 17.9375 56.6875C18.4514 56.6875 18.9442 56.4834 19.3075 56.12C19.6709 55.7567 19.875 55.2639 19.875 54.75Z" fill="#2F68DC"/>
<path fill-rule="evenodd" clip-rule="evenodd" d="M17.9375 28.5938H24.7188C25.2326 28.5938 25.7254 28.3896 26.0888 28.0263C26.4521 27.6629 26.6562 27.1701 26.6562 26.6562C26.6562 26.1424 26.4521 25.6496 26.0888 25.2862C25.7254 24.9229 25.2326 24.7188 24.7188 24.7188H17.9375C17.4236 24.7188 16.9308 24.9229 16.5675 25.2862C16.2041 25.6496 16 26.1424 16 26.6562C16 27.1701 16.2041 27.6629 16.5675 28.0263C16.9308 28.3896 17.4236 28.5938 17.9375 28.5938ZM27.625 45.0625C27.625 46.6041 27.0126 48.0825 25.9226 49.1726C24.8325 50.2626 23.3541 50.875 21.8125 50.875H17.9375C17.4236 50.875 16.9308 50.6709 16.5675 50.3075C16.2041 49.9442 16 49.4514 16 48.9375V41.1875C16 40.6736 16.2041 40.1808 16.5675 39.8175C16.9308 39.4541 17.4236 39.25 17.9375 39.25H21.8125C23.3541 39.25 24.8325 39.8624 25.9226 40.9524C27.0126 42.0425 27.625 43.5209 27.625 45.0625ZM23.75 45.0625C23.75 44.5486 23.5459 44.0558 23.1825 43.6925C22.8192 43.3291 22.3264 43.125 21.8125 43.125H19.875V47H21.8125C22.3264 47 22.8192 46.7959 23.1825 46.4325C23.5459 46.0692 23.75 45.5764 23.75 45.0625Z" fill="#2F68DC"/>
<path fill-rule="evenodd" clip-rule="evenodd" d="M27.625 52.8125C27.625 54.3541 27.0126 55.8325 25.9226 56.9226C24.8325 58.0126 23.3541 58.625 21.8125 58.625H17.9375C17.4236 58.625 16.9308 58.4209 16.5675 58.0575C16.2041 57.6942 16 57.2014 16 56.6875V48.9375C16 48.4236 16.2041 47.9308 16.5675 47.5675C16.9308 47.2041 17.4236 47 17.9375 47H21.8125C23.3541 47 24.8325 47.6124 25.9226 48.7024C27.0126 49.7925 27.625 51.2709 27.625 52.8125ZM23.75 52.8125C23.75 52.2986 23.5459 51.8058 23.1825 51.4425C22.8192 51.0791 22.3264 50.875 21.8125 50.875H19.875V54.75H21.8125C22.3264 54.75 22.8192 54.5459 23.1825 54.1825C23.5459 53.8192 23.75 53.3264 23.75 52.8125ZM48.9356 48.9375C48.9356 47.3959 48.3232 45.9175 47.2331 44.8274C46.1431 43.7374 44.6646 43.125 43.1231 43.125H37.3106C35.769 43.125 34.2906 43.7374 33.2005 44.8274C32.1104 45.9175 31.4981 47.3959 31.4981 48.9375C31.4981 50.4791 32.1104 51.9575 33.2005 53.0476C34.2906 54.1376 35.769 54.75 37.3106 54.75H43.1231C44.6646 54.75 46.1431 54.1376 47.2331 53.0476C48.3232 51.9575 48.9356 50.4791 48.9356 48.9375ZM78 25.6875C78 24.1453 77.3877 22.6669 76.2969 21.5781C75.7576 21.0379 75.117 20.6095 74.4118 20.3173C73.7067 20.025 72.9508 19.8747 72.1875 19.875H37.3125C35.7703 19.875 34.2919 20.4873 33.2031 21.5781C32.6629 22.1174 32.2345 22.758 31.9423 23.4632C31.65 24.1683 31.4997 24.9242 31.5 25.6875C31.5 27.2298 32.1122 28.7081 33.2031 29.7969C33.7424 30.3371 34.383 30.7655 35.0882 31.0577C35.7933 31.35 36.5492 31.5003 37.3125 31.5H72.1875C73.7298 31.5 75.2081 30.8877 76.2969 29.7969C76.8371 29.2576 77.2655 28.617 77.5577 27.9118C77.85 27.2067 78.0003 26.4508 78 25.6875Z" fill="#2F68DC"/>
</g>
<defs>
<clipPath id="clip0_2007_754">
<rect width="62" height="62" fill="white" transform="translate(16 16)"/>
</clipPath>
</defs>
</svg>

<svg xmlns="http://www.w3.org/2000/svg" width="100" height="100" fill="none" viewBox="0 0 100 100">
  <g fill="#2F68DC" fill-rule="evenodd" clip-path="url(#a)" clip-rule="evenodd">
    <path d="m63.608 70.06-3.355 1.938a1.939 1.939 0 0 1-2.899-1.866l1.61-16.59a1.936 1.936 0 0 1 2.73-1.576l15.17 6.901a1.937 1.937 0 0 1 .167 3.443l-3.356 1.938 2.907 5.033a5.813 5.813 0 0 1-10.067 5.813l-2.907-5.034Zm-11.817-8.839 3.356-1.937a1.939 1.939 0 0 0-1.937-3.358l-3.356 1.938a1.937 1.937 0 0 0 1.937 3.357Zm16.781-9.687 3.356-1.938a1.939 1.939 0 0 0-1.938-3.357l-3.355 1.937a1.937 1.937 0 0 0 .472 3.541c.494.134 1.02.07 1.465-.183Zm-9.877-5.485-1.938-3.356a1.937 1.937 0 0 0-3.355 1.937l1.937 3.356a1.937 1.937 0 0 0 3.356-1.937Zm-38.82-12.611V21.812a1.937 1.937 0 1 1 3.875 0v11.625a1.937 1.937 0 1 0 3.875 0V21.813a5.813 5.813 0 0 0-11.625 0v11.625a1.937 1.937 0 1 0 3.875 0Zm0 21.312V41.187a1.937 1.937 0 1 0-3.875 0V54.75a1.937 1.937 0 1 0 3.875 0Z"/>
    <path d="M17.938 28.594h6.78a1.938 1.938 0 0 0 0-3.875h-6.78a1.937 1.937 0 1 0 0 3.875Zm9.687 16.468a5.813 5.813 0 0 1-5.813 5.813h-3.875A1.937 1.937 0 0 1 16 48.937v-7.75a1.937 1.937 0 0 1 1.938-1.937h3.875a5.813 5.813 0 0 1 5.812 5.813Zm-3.875 0a1.937 1.937 0 0 0-1.938-1.937h-1.937V47h1.938a1.937 1.937 0 0 0 1.937-1.938Z"/>
    <path d="M27.625 52.813a5.813 5.813 0 0 1-5.813 5.812h-3.875A1.937 1.937 0 0 1 16 56.687v-7.75A1.937 1.937 0 0 1 17.938 47h3.875a5.813 5.813 0 0 1 5.812 5.813Zm-3.875 0a1.937 1.937 0 0 0-1.938-1.938h-1.937v3.875h1.938a1.937 1.937 0 0 0 1.937-1.938Zm25.186-3.876a5.812 5.812 0 0 0-5.813-5.812h-5.812a5.813 5.813 0 0 0 0 11.625h5.812a5.813 5.813 0 0 0 5.813-5.813ZM78 25.688c0-1.542-.612-3.02-1.703-4.109a5.802 5.802 0 0 0-4.11-1.703H37.313a5.805 5.805 0 0 0-4.11 1.703 5.802 5.802 0 0 0-1.703 4.11c0 1.542.612 3.02 1.703 4.109a5.802 5.802 0 0 0 4.11 1.703h34.874a5.805 5.805 0 0 0 4.11-1.703A5.802 5.802 0 0 0 78 25.687Z"/>
  </g>
  <defs>
    <clipPath id="a">
      <path fill="#fff" d="M0 0h62v62H0z" transform="translate(16 16)"/>
    </clipPath>
  </defs>
</svg>
